!!!!SEGMENT: pl-cz--iii-453--001-006_maader-ludwik--rorate-caeli-qui-nobis-tribuat.krn
!!!cenid: 17xx:985
!!!COM: Maader, Ludwik
!!!COM-rismID: pe30020328
!!!CDT: <1794->1798
!!!CNT:
!!!OPR: Rorate caeli
!!!OTL: Qui nobis tribuat
!!!OMV: 006
!!!PDT: 1784
!!!AGN: Sacred
!!!YEC: Copyright 2022 Narodowy Instytut Fryderyka Chopina (https://polishscores.org)
!!!YEM: License CC-BY-4.0 (https://creativecommons.org/licenses/by/4.0)
!!!SMS-siglum: PL-CZ
!!!SMS-shelfmark: III-453
!!!SMS-shelfwork: 001-006 M
!!!SMS-variant:
!!!SMS-altvar:
!!!NIFC-rismSourceID: 300000768
!!!NIFC-rismChildID: 300000768
!!!NIFC-islandoraID: pl-cz:38496
!!!URL-pdf-islandora: https://repozytorium.nifc.pl/islandora/object/pl-cz%3A38496/datastream/PDF/view
!!!URL-scan: https://polish.musicsources.pl/pl/lokalizacje/galeria/rekopisy/6932/1 @EN{Scan on Polish Music Sources Website} @PL{Skany w portalu Dziedzictwo Muzyki Polskiej w otwartym dostępie}
!!!IIIF:
!!!ONB-nifc: UWAGA: części Rorate caeli: Rorate, Mittit ad virginem, Zdrowaś bądź Maria, Super bientium, Łaskiś pełna pańskiej, Qui nobis tribuat, Amen
!!!AIN: 1 alto 1 bass 2 oboe 1 organ 1 soprn 1 tenor 1 timpa 2 tromb 2 violn
!!!key: C
**kern	**fba	**dynam	**kern	**kern	**kern	**text	**kern	**text	**kern	**text	**kern	**text	**kern	**kern	**kern	**kern	**kern
*	*	*	*group4	*group4	*group3	*	*group3	*	*group3	*	*group3	*	*	*group2	*group2	*group1	*group1
*part12	*	*	*part11	*part10	*part9	*	*part8	*	*part7	*	*part6	*	*part5	*part4	*part3	*part2	*part1
*staff12	*	*	*staff11	*staff10	*staff9	*	*staff8	*	*staff7	*	*staff6	*	*staff5	*staff4	*staff3	*staff2	*staff1
*I"Organo.	*	*	*I"Violino Secondo	*I"Violino Primo.	*I"Baſso.	*	*I"Tenore	*	*I"Alto.	*	*I"Canto.	*	*I"Tympano in D.A.	*I"Clarino IIdo ex D#.	*I"Clarino Imo. ex D.#	*I"Oboe Secondo	*I"Oboe Imo.
*I'org	*	*	*I'vl 2	*I'vl 1	*I'B	*	*I'T	*	*I'A	*	*I'S	*	*I'timp	*I'clno 2 in E|b	*I'clno 1 in E|b	*I'ob 2	*I'ob 1
*Iorgan	*	*	*Ivioln	*Ivioln	*Ibass	*	*Itenor	*	*Ialto	*	*Isoprn	*	*Itimpa	*Itromb	*Itromb	*Ioboe	*Ioboe
*ICklav	*	*	*ICstr	*ICstr	*ICvox	*	*ICvox	*	*ICvox	*	*ICvox	*	*ICidio	*ICbras	*ICbras	*ICww	*ICww
*IGcont	*	*	*	*	*IGcoro	*	*IGcoro	*	*IGcoro	*	*IGcoro	*	*	*	*	*	*
*clefF4	*	*	*clefG2	*clefG2	*clefF4	*	*clefC4	*	*clefC3	*	*clefC1	*	*	*	*	*clefG2	*clefG2
*k[]	*	*	*k[]	*k[]	*k[]	*	*k[]	*	*k[]	*	*k[]	*	*	*	*	*k[]	*k[f#]
*C:	*	*	*C:	*C:	*C:	*	*C:	*	*C:	*	*C:	*	*	*	*	*C:	*C:
*M2/4	*	*	*M2/4	*M2/4	*M2/4	*	*M2/4	*	*M2/4	*	*M2/4	*	*	*	*	*M2/4	*M2/4
=1	=1	=1	=1	=1	=1	=1	=1	=1	=1	=1	=1	=1	=1	=1	=1	=1	=1
!LO:TX:a:t=P:problem=brak pauzy 4r	!	!	!LO:TX:a:t=P:problem=brak pauzy 4r	!LO:TX:a:t=P:problem=brak pauzy 4r	!LO:TX:a:t=P:problem=brak pauzy 4r	!	!LO:TX:a:t=P:problem=brak pauzy 4r	!	!LO:TX:a:t=P:problem=brak pauzy 4r	!	!LO:TX:a:t=P:problem=brak pauzy 4r	!	!LO:TX:a:t=P:problem=brak części w źródle	!LO:TX:a:t=P:problem=brak części w źródle	!LO:TX:a:t=P:problem=brak części w źródle	!	!
4ryy	.	.	4ryy	4ryy	4ryy	.	4ryy	.	4ryy	.	4ryy	.	2ryy	2ryy	2ryy	4r	4r
!LO:TX:a:i:t=Tutti	!	!LO:DY:t=forte.	!	!	!	!	!	!	!	!	!	!	!	!	!	!LO:TX:a:t=Tutti	!LO:TX:a:t=Tutti
8ryy	.	f	8cc\L	(8ee\L	4c\	Qvi	8G\L	Qvi	8cc\	Qvi	8ee\L	Qvi	.	.	.	8cc\L	8ee\L
8c\	.	.	8ee\J	8gg\J)	.	.	8c\J	.	8ee\	.	8gg\J	.	.	.	.	8ee\J	8gg\J
=2	=2	=2	=2	=2	=2	=2	=2	=2	=2	=2	=2	=2	=2	=2	=2	=2	=2
4d\	9 4	.	8ee\L	8gg\L	4d\	no-	4A\	no-	8ee\L	no-	8gg\L	no-	2ryy	2ryy	2ryy	8ee\L	8gg\L
.	8 3	.	8dd\	8ff\	.	.	.	.	8dd\J	.	8ff\J	.	.	.	.	8dd\	8ffn\J
4G\	.	.	8b\	8dd\	4G\	.	8G\L	.	8b\L	.	8dd\L	.	.	.	.	8b\	8dd\L
.	.	.	8dd\J	8ff\J	.	.	8B\J	.	8dd\J	.	8ff\J	.	.	.	.	8dd\J	8ff\J
=3	=3	=3	=3	=3	=3	=3	=3	=3	=3	=3	=3	=3	=3	=3	=3	=3	=3
!	!	!	!	!	!	!	!	!	!	!	!	!	!	!	!	!LO:TX:t=P:problem=mixed beam	!LO:SIC:v:v:o=8ff#\L
4c\	9 4	.	8dd\L	8ff\L	4c\	-bis	4c\	-bis	8dd\L	-bis	8ff\L	-bis	2ryy	2ryy	2ryy	8dd\L	8ffn\L
.	8 3	.	8cc\J	8ee\	.	.	.	.	8cc\J	.	8ee\J	.	.	.	.	8cc\	8ee\J
8E\L	.	.	8e/L	8cc\	8E\L	tri-	8G\L	tri-	4g\	tri-	4ee\	tri-	.	.	.	8e/	8cc\L
8C\J	.	.	8g/J	8ee\J	8C\J	.	8c\J	.	.	.	.	.	.	.	.	8g/J	8ee\J
=4	=4	=4	=4	=4	=4	=4	=4	=4	=4	=4	=4	=4	=4	=4	=4	=4	=4
4F\	9 7	.	8g/L	8ee\L	4Fn\	.	8Fn/L	.	8g\L	.	8ee\L	.	2ryy	2ryy	2ryy	8g/L	8ee\L
.	8 6	.	8f/	8dd\	.	.	8A/J	.	8f\J	.	8dd\J	.	.	.	.	8fn/	8dd\
*	*below	*	*	*	*	*	*	*	*	*	*	*	*	*	*	*	*
!LO:TX:t=P:problem=mixed beam	!	!	!	!	!	!	!	!	!	!	!	!	!	!	!	!	!
8G\L	6 4	.	8e/	8cc\	4G\	-bu-	4G/	-bu-	8e\L	-bu-	8cc\L	-bu-	.	.	.	8e/	8cc\
8GG/J	5 3	.	8d/J	8b\J	.	.	.	.	8d\J	.	8b\J	.	.	.	.	8d/J	8b\J
=5	=5	=5	=5	=5	=5	=5	=5	=5	=5	=5	=5	=5	=5	=5	=5	=5	=5
4C/	.	.	4e/	4cc\	4C/	-at	4G/	-at	4e\	-at	4cc\	-at	2ryy	2ryy	2ryy	4e/	4cc\
!	!	!	!	!	!	!	!LO:TX:t=P:problem=mixed beam	!	!	!	!	!	!	!	!	!	!
4c\	.	.	8cc\L	8ee\L	4c\	pec-	8G/L	pec-	8cc\L	pec-	8ee\L	pec-	.	.	.	8cc\L	8ee\L
.	.	.	8ee\J	8gg\J	.	.	8c\J	.	8ee\J	.	8gg\J	.	.	.	.	8ee\J	8gg\J
!	!	!	!	!	!	!	!	!	!	!	!	!	!	!	!	!	!LO:LB:g=original
=6	=6	=6	=6	=6	=6	=6	=6	=6	=6	=6	=6	=6	=6	=6	=6	=6	=6
*	*above	*	*	*	*	*	*	*	*	*	*	*	*	*	*	*	*
4d\	9 4	.	8ee\L	8gg\L	4d\	-ca-	4A\	-ca-	8ee\L	-ca-	8gg\L	-ca-	2ryy	2ryy	2ryy	8ee\L	8gg\L
.	8 3	.	8dd\	8ff\	.	.	.	.	8dd\J	.	8ff\J	.	.	.	.	8dd\	8ffn\
4G\	.	.	8b\	8dd\	4G\	.	8G\L	.	8b\L	.	8dd\L	.	.	.	.	8b\	8dd\
.	.	.	8dd\J	8ff\J	.	.	8B\J	.	8dd\J	.	8ff\J	.	.	.	.	8dd\J	8ff\J
=7	=7	=7	=7	=7	=7	=7	=7	=7	=7	=7	=7	=7	=7	=7	=7	=7	=7
!	!	!	!LO:TX:t=P:problem=mixed beam	!	!	!	!	!	!	!	!	!	!	!	!	!	!LO:SIC:v:v:o=8ff#\L
4c\	9 4	.	8dd\L	8ff\L	4c\	-ti	4c\	-ti	8dd\L	-ti	8ff\L	-ti	2ryy	2ryy	2ryy	8dd\L	8ffn\L
.	8 3	.	8cc\	8ee\	.	.	.	.	8cc\J	.	8ee\J	.	.	.	.	8cc\J	8ee\
8E\L	.	.	8e/	8cc\	8E\L	Ve-	8G\L	Ve-	8cc\L	Ve-	4ee\	Ve-	.	.	.	8e/L	8cc\
8C\J	.	.	8g/J	8ee\J	8C\J	.	8c\J	.	8g\J	.	.	.	.	.	.	8g/J	8ee\J
!	!	!	!	!	!	!	!	!	!	!	!	!	!	!	!	!LO:LB:g=original	!
=8	=8	=8	=8	=8	=8	=8	=8	=8	=8	=8	=8	=8	=8	=8	=8	=8	=8
4F\	9 7	.	8g/L	8ee\L	4Fn\	.	8Fn/L	.	8g\L	.	8ee\L	.	2ryy	2ryy	2ryy	8g/L	8ee\L
.	8 6	.	8f/	8dd\	.	.	8A/J	.	8f\J	.	8dd\J	.	.	.	.	8f/	8dd\
!LO:TX:t=P:problem=mixed beam	!	!	!	!	!	!	!	!	!	!	!	!	!	!	!	!	!
8G\L	6 4	.	8e/	8cc\	4G\	-ni-	4G/	-ni-	8e\	.	8cc\L	-ni-	.	.	.	8e/	8cc\
8GG/J	5 3	.	8d/J	8b\J	.	.	.	.	8d\	-ni-	8b\J	.	.	.	.	8d/J	8b\J
!LO:LB:g=original	!	!	!	!	!	!	!	!	!LO:LB:g=original	!	!	!	!	!	!	!	!
=9	=9	=9	=9	=9	=9	=9	=9	=9	=9	=9	=9	=9	=9	=9	=9	=9	=9
4C\	.	.	4e/	4cc\	4C/	-am	4G/	-am	4e\	-am	4cc\	-am	2ryy	2ryy	2ryy	4e/	4cc\
4r	.	.	16g\LL	16g\LL	4r	.	4r	.	4r	.	4r	.	.	.	.	4r	4r
.	.	.	16a\	16a\	.	.	.	.	.	.	.	.	.	.	.	.	.
.	.	.	16b\	16b\	.	.	.	.	.	.	.	.	.	.	.	.	.
.	.	.	16cc\JJ	16cc\JJ	.	.	.	.	.	.	.	.	.	.	.	.	.
=10	=10	=10	=10	=10	=10	=10	=10	=10	=10	=10	=10	=10	=10	=10	=10	=10	=10
*	*	*	*	*	*	*	*	*	*	*	*2\right	*	*	*	*	*	*
!	!	!	!	!	!	!	!	!	!	!	!LO:N:vis=2	!	!	!	!	!	!
4r	.	.	8dd\L	8dd\L	4r	.	4G/	re-	4b\	re-	4dd\	re-	2ryy	2ryy	2ryy	1r	1r
.	.	.	8dd\J	8dd\J	.	.	.	.	.	.	.	.	.	.	.	.	.
4F\	4 2	.	16cc\LL	16cc\LL	4Fn\	re-	4G/	-a-	4b\	-a-	4dd\	-a-	.	.	.	.	.
.	.	.	16b\	16b\	.	.	.	.	.	.	.	.	.	.	.	.	.
.	.	.	16a\	16a\	.	.	.	.	.	.	.	.	.	.	.	.	.
.	.	.	16g\JJ	16g\JJ	.	.	.	.	.	.	.	.	.	.	.	.	.
!	!	!	!	!	!	!	!	!	!	!	!LO:LB:g=original	!	!	!	!	!	!
=11	=11	=11	=11	=11	=11	=11	=11	=11	=11	=11	=11	=11	=11	=11	=11	=11	=11
4E\	6	.	4cc\	4cc\	8E\	-a-	4G/	-tus	4cc\	-tus	4ee\	-tus	2ryy	2ryy	2ryy	.	.
.	.	.	.	.	8E\	-tus	.	.	.	.	.	.	.	.	.	.	.
4r	.	.	16cc\LL	16cc\LL	4r	.	4r	.	4r	.	4r	.	.	.	.	.	.
.	.	.	16dd\	16dd\	.	.	.	.	.	.	.	.	.	.	.	.	.
.	.	.	16ee\	16ee\	.	.	.	.	.	.	.	.	.	.	.	.	.
.	.	.	16ff\JJ	16ff\JJ	.	.	.	.	.	.	.	.	.	.	.	.	.
!	!	!	!LO:LB:g=original	!LO:LB:g=original	!LO:LB:g=original	!	!LO:LB:g=original	!	!	!	!	!	!	!	!	!	!
=12	=12	=12	=12	=12	=12	=12	=12	=12	=12	=12	=12	=12	=12	=12	=12	=12	=12
!LO:TX:t=P:problem=takt nr 12 nieczytelny	!	!	!	!	!	!	!	!	!	!	!	!	!	!	!	!	!
2ryy	.	.	8gg\L	8gg\L	4r	.	4c\	de-	4g\	de-	4ee\	de-	2ryy	2ryy	2ryy	2r	2r
.	.	.	8gg\	8gg\J	.	.	.	.	.	.	.	.	.	.	.	.	.
.	.	.	16ff\L	16ff\LL	4B-X\	re-	4c\	-le-	4g\	-le-	4ee\	-le-	.	.	.	.	.
.	.	.	16ee\	16ee\	.	.	.	.	.	.	.	.	.	.	.	.	.
.	.	.	16dd\	16dd\	.	.	.	.	.	.	.	.	.	.	.	.	.
.	.	.	16cc\JJ	16cc\JJ	.	.	.	.	.	.	.	.	.	.	.	.	.
=13	=13	=13	=13	=13	=13	=13	=13	=13	=13	=13	=13	=13	=13	=13	=13	=13	=13
4A\	6	.	4ff\	4ff\	8A\	-a-	4c\	-at	4a\	-at	4ff\	-at	2ryy	2ryy	2ryy	4r	4r
.	.	.	.	.	8A\	-tus	.	.	.	.	.	.	.	.	.	.	.
4r	.	.	8ff\L	8aa\L	4r	.	8fn\L	de-	4r	.	8aa\L	de-	.	.	.	8ffn\L	8aa\L
.	.	.	8ee\J	8gg\J	.	.	8e\J	.	.	.	8gg\J	.	.	.	.	8ee\J	8gg\J
=14	=14	=14	=14	=14	=14	=14	=14	=14	=14	=14	=14	=14	=14	=14	=14	=14	=14
4r	.	.	8ee\L	8gg\L	4r	.	8e\L	.	1r	.	8gg\L	.	2ryy	2ryy	2ryy	8ee\L	8gg\L
.	.	.	8dd\	8ff\	.	.	8d\J	.	.	.	8ff\J	.	.	.	.	8dd\	8ffn\
8r	.	.	8dd\	8ff\	8F\	de-	8d\L	-le-	.	.	8ff\L	-le-	.	.	.	8dd\	8ff\
8F#X\	.	.	8cc\J	8ee\J	8F#X\	-le-	8c\J	.	.	.	8ee\J	.	.	.	.	8cc\J	8ee\J
=15	=15	=15	=15	=15	=15	=15	=15	=15	=15	=15	=15	=15	=15	=15	=15	=15	=15
.	.	.	.	.	.	.	8qqc/	.	.	.	8qqee/	.	.	.	.	.	.
4G\	6 4	.	8cc\L	8ee\L	4G\	-at	4B\	-at	.	.	4dd\	-at	2ryy	2ryy	2ryy	8cc\L	8ee\L
.	5 3	.	8b\	8dd\	.	.	.	.	.	.	.	.	.	.	.	8b\J	8dd\J
4GG/	.	.	8b\	8dd\	4r	.	4r	.	.	.	4r	.	.	.	.	8b\L	8dd\L
.	.	.	8b\J	8dd\J	.	.	.	.	.	.	.	.	.	.	.	8b\J	8dd\J
=16	=16	=16	=16	=16	=16	=16	=16	=16	=16	=16	=16	=16	=16	=16	=16	=16	=16
4GG/	.	.	8b\	8dd\	4r	.	4r	.	4r	.	4r	.	2ryy	2ryy	2ryy	4b\	4dd\
.	.	.	8r	8r	.	.	.	.	.	.	.	.	.	.	.	.	.
!	!	!	!	!	!	!	!LO:TX:t=P:problem=mixed beam	!	!	!	!	!	!	!	!	!	!
4C/	.	.	8cc\L	8ee\L	4c\	et	8G/L	et	8cc\L	et	8ee\L	et	.	.	.	8cc\L	8ee\L
.	.	.	8ee\J	8gg\J	.	.	8c\J	.	8ee\J	.	8gg\J	.	.	.	.	8ee\J	8gg\J
=17	=17	=17	=17	=17	=17	=17	=17	=17	=17	=17	=17	=17	=17	=17	=17	=17	=17
4D/	9 4	.	8ee\L	8gg\L	4d\	do-	4A\	do-	8ee\L	do-	8gg\L	do-	2ryy	2ryy	2ryy	8ee\L	8gg\L
.	8 3	.	8dd\	8ff\	.	.	.	.	8dd\J	.	8ff\J	.	.	.	.	8dd\	8ffn\
4GG/	.	.	8b\	8dd\	4G\	.	8G\L	.	8b\L	.	8dd\L	.	.	.	.	8b\	8dd\
.	.	.	8dd\J	8ff\J	.	.	8B\J	.	8dd\J	.	8ff\J	.	.	.	.	8dd\J	8ff\J
=18	=18	=18	=18	=18	=18	=18	=18	=18	=18	=18	=18	=18	=18	=18	=18	=18	=18
!	!	!	!LO:TX:t=P:problem=mixed beam	!	!	!	!	!	!	!	!	!	!	!	!	!	!LO:SIC:v:v:o=8ff#\L
4C\	9 4	.	8dd\L	8ff\L	4c\	-net	4c\	-net	8dd\L	-net	8ff\L	-net	2ryy	2ryy	2ryy	8dd\L	8ffn\L
.	8 3	.	8cc\	8ee\	.	.	.	.	8cc\J	.	8ee\J	.	.	.	.	8cc\J	8ee\
!	!	!	!	!	!	!	!LO:TX:t=P:problem=mixed beam	!	!	!	!	!	!	!	!	!	!
8E\L	.	.	8e/	8cc\	8E\L	Pa-	8G/L	Pa-	8cc\L	Pa-	4ee\	Pa-	.	.	.	8e/L	8cc\
8C\J	.	.	8g/J	8ee\J	8C\J	.	8c\J	.	8g\J	.	.	.	.	.	.	8g/J	8ee\J
!	!	!	!	!	!	!	!	!	!LO:LB:g=original	!	!	!	!	!	!	!LO:LB:g=original	!LO:LB:g=original
=19	=19	=19	=19	=19	=19	=19	=19	=19	=19	=19	=19	=19	=19	=19	=19	=19	=19
4F\	9 7	.	8g/L	8ee\L	4F\	.	8Fn/L	.	8g\L	.	8ee\L	.	2ryy	2ryy	2ryy	8g/L	8ee\L
.	8 6	.	8f/	8dd\	.	.	8A/J	.	8f\J	.	8dd\J	.	.	.	.	8f/	8dd\
*	*below	*	*	*	*	*	*	*	*	*	*	*	*	*	*	*	*
!LO:TX:t=P:problem=mixed beam	!	!	!	!	!	!	!	!	!	!	!	!	!	!	!	!	!
8G\L	6 4	.	8e/	8cc\	4G\	-tri-	4G/	-tri-	8e\	.	8cc\L	-tri-	.	.	.	8e/	8cc\
8GG/J	5 3	.	8d/J	8b\J	.	.	.	.	8d\	-tri-	8b\J	.	.	.	.	8d/J	8b\J
=20	=20	=20	=20	=20	=20	=20	=20	=20	=20	=20	=20	=20	=20	=20	=20	=20	=20
4C/	.	.	4e/	4cc\	4C/	-am	4G/	-am	4e\	-am	4cc\	-am	2ryy	2ryy	2ryy	4e/	4cc\
!	!	!	!	!	!	!	!LO:TX:t=P:problem=mixed beam	!	!	!	!	!	!	!	!	!	!
4c\	.	.	8cc\L	8ee\L	4c\	in	8G/L	in	8cc\L	in	8ee\L	.	.	.	.	8cc\L	8ee\L
.	.	.	8ee\J	8gg\J	.	.	8c\J	.	8ee\J	.	8gg\J	.	.	.	.	8ee\J	8gg\J
!LO:LB:g=original	!	!	!	!	!	!	!LO:LB:g=original	!	!	!	!	!	!	!	!	!	!
=21	=21	=21	=21	=21	=21	=21	=21	=21	=21	=21	=21	=21	=21	=21	=21	=21	=21
*	*above	*	*	*	*	*	*	*	*	*	*	*	*	*	*	*	*
4d\	9 4	.	8ee\L	8gg\L	4d\	Ar-	4A\	Ar-	8ee\L	Ar-	8gg\L	in	2ryy	2ryy	2ryy	8ee\L	8gg\L
.	8 3	.	8dd\	8ff\	.	.	.	.	8dd\J	.	8ff\J	.	.	.	.	8dd\	8ffn\
4G\	.	.	8b\	8dd\	4G\	.	8G\L	.	8b\L	.	8dd\L	Ar-	.	.	.	8b\	8dd\
.	.	.	8dd\J	8ff\J	.	.	8B\J	.	8dd\J	.	8ff\J	.	.	.	.	8dd\J	8ff\J
!	!	!	!	!	!LO:LB:g=original	!	!	!	!	!	!	!	!	!	!	!	!
=22	=22	=22	=22	=22	=22	=22	=22	=22	=22	=22	=22	=22	=22	=22	=22	=22	=22
!	!	!	!	!	!	!	!	!	!	!	!	!	!	!	!	!	!LO:SIC:v:v:o=8ff#\L
4c\	9 4	.	8dd\L	8ff\L	4c\	-ce	4c\	-ce	8dd\L	-ce	8ff\L	-ce	2ryy	2ryy	2ryy	8dd\L	8ffn\L
.	8 3	.	8cc\	8ee\	.	.	.	.	8cc\J	.	8ee\J	.	.	.	.	8cc\	8ee\
!	!	!	!	!	!	!	!LO:TX:t=P:problem=mixed beam	!	!	!	!	!	!	!	!	!	!
8E\L	.	.	8ee\	8ccc\	8E\L	Sy-	8G/L	Sy-	8cc\L	Sy-	4ee\	Sy-	.	.	.	8ee\	8ccc\
8C\J	.	.	8ee\J	8ccc\J	8C\J	.	8c\J	.	8g\J	.	.	.	.	.	.	8ee\J	8ccc\J
!	!	!	!	!	!	!	!	!	!	!	!LO:LB:g=original	!	!	!	!	!	!
=23	=23	=23	=23	=23	=23	=23	=23	=23	=23	=23	=23	=23	=23	=23	=23	=23	=23
4F\	6	.	8ff\L	8ddd\L	4F\	.	4A/	.	4f\	.	4dd\	.	2ryy	2ryy	2ryy	8ffn\L	8ddd\L
.	.	.	8ff\	8ddd\	.	.	.	.	.	.	.	.	.	.	.	8ff\	8ddd\
!LO:TX:t=P:problem=mixed beam	!	!	!	!	!	!	!	!	!	!	!	!	!	!	!	!	!
8G\L	.	.	8dd\	8bb\	4G\	-de-	4G/	-de-	8e\L	-de-	8cc\L	-de-	.	.	.	8dd\	8bb\
8GG/J	.	.	8dd\J	8bb\J	.	.	.	.	8d\J	.	8b\J	.	.	.	.	8dd\J	8bb\J
=24	=24	=24	=24	=24	=24	=24	=24	=24	=24	=24	=24	=24	=24	=24	=24	=24	=24
4C\	.	.	4ee\	4ccc\	4C/	-rum.	4G/	-rum.	4e\	-rum.	4cc\	-rum.	2ryy	2ryy	2ryy	4ee\	4ccc\
4r	.	.	4r	4r	4r	.	4r	.	4r	.	4r	.	.	.	.	4r	4r
==	==	==	==	==	==	==	==	==	==	==	==	==	==	==	==	==	==
*-	*-	*-	*-	*-	*-	*-	*-	*-	*-	*-	*-	*-	*-	*-	*-	*-	*-
!!!system-decoration: [(g1)][(g2)]<s5>[(g3)][(g4)]<s12>
!!!ENC: Kamil Watkowski
!!!END: 2020-09-10
!!!ENC: Andrzej Kubiczek
!!!END: 2022-01-26
